cssgg/log-off.svg

<svg
  width="24"
  height="24"
  viewBox="0 0 24 24"
  fill="none"
  xmlns="http://www.w3.org/2000/svg"
>
  <path
    d="M13 4.00894C13.0002 3.45665 12.5527 3.00876 12.0004 3.00854C11.4481 3.00833 11.0002 3.45587 11 4.00815L10.9968 12.0116C10.9966 12.5639 11.4442 13.0118 11.9965 13.012C12.5487 13.0122 12.9966 12.5647 12.9968 12.0124L13 4.00894Z"
    fill="currentColor"
  />
  <path
    d="M4 12.9917C4 10.7826 4.89541 8.7826 6.34308 7.33488L7.7573 8.7491C6.67155 9.83488 6 11.3349 6 12.9917C6 16.3054 8.68629 18.9917 12 18.9917C15.3137 18.9917 18 16.3054 18 12.9917C18 11.3348 17.3284 9.83482 16.2426 8.74903L17.6568 7.33481C19.1046 8.78253 20 10.7825 20 12.9917C20 17.41 16.4183 20.9917 12 20.9917C7.58172 20.9917 4 17.41 4 12.9917Z"
    fill="currentColor"
  />
</svg>

<svg viewBox="0 0 24 24" xmlns="http://www.w3.org/2000/svg"><g><path d="M13 4c0-.56-.45-1.01-1-1.01 -.56-.01-1.01.44-1.01.99l-.01 8c-.01.55.44 1 .99 1s1-.45 1-1l0-8.01Z"/><path d="M4 12.99c0-2.21.89-4.21 2.34-5.66l1.41 1.41c-1.09 1.08-1.76 2.58-1.76 4.24 0 3.31 2.68 6 6 6 3.31 0 6-2.69 6-6 0-1.66-.68-3.16-1.76-4.25l1.41-1.42c1.44 1.44 2.34 3.44 2.34 5.65 0 4.41-3.59 8-8 8 -4.42 0-8-3.59-8-8Z"/></g></svg>
